icons/Business/slideshow-line.svg

<svg viewBox="0 0 24 24" xmlns="http://www.w3.org/2000/svg"><path d="M13 21V23H11V21H3C2.44772 21 2 20.5523 2 20V6H22V20C22 20.5523 21.5523 21 21 21H13ZM4 19H20V8H4V19ZM13 10H18V12H13V10ZM13 14H18V16H13V14ZM9 10V13H12C12 14.6569 10.6569 16 9 16C7.34315 16 6 14.6569 6 13C6 11.3431 7.34315 10 9 10ZM2 3H22V5H2V3Z"/></svg>

<svg xmlns="http://www.w3.org/2000/svg" viewBox="0 0 24 24">
    <g>
        <path fill="none" d="M0 0h24v24H0z"/>
        <path d="M13 21v2h-2v-2H3a1 1 0 0 1-1-1V6h20v14a1 1 0 0 1-1 1h-8zm-9-2h16V8H4v11zm9-9h5v2h-5v-2zm0 4h5v2h-5v-2zm-4-4v3h3a3 3 0 1 1-3-3zM2 3h20v2H2V3z"/>
    </g>
</svg>
